Humanity/actions/24/gtk-info.svg

<?xml version="1.0" encoding="UTF-8" standalone="no"?>
<!-- Created with Inkscape (http://www.inkscape.org/) -->

<svg
   xmlns:svg="http://www.w3.org/2000/svg"
   xmlns="http://www.w3.org/2000/svg"
   xmlns:xlink="http://www.w3.org/1999/xlink"
   version="1.0"
   width="24"
   height="24"
   id="svg2463">
  <defs
     id="defs2465">
    <linearGradient
       id="linearGradient8838">
      <stop
         id="stop8840"
         style="stop-color:black;stop-opacity:1"
         offset="0" />
      <stop
         id="stop8842"
         style="stop-color:black;stop-opacity:0"
         offset="1" />
    </linearGradient>
    <radialGradient
       cx="62.625"
       cy="4.625"
       r="10.625"
       fx="62.625"
       fy="4.625"
       id="radialGradient2461"
       xlink:href="#linearGradient8838"
       gradientUnits="userSpaceOnUse"
       gradientTransform="matrix(1.1294118,0,0,0.2823525,-58.729414,19.694118)" />
    <linearGradient
       id="linearGradient2490-182-124">
      <stop
         id="stop2788"
         style="stop-color:#1f4b6a;stop-opacity:1"
         offset="0" />
      <stop
         id="stop2790"
         style="stop-color:#4083c2;stop-opacity:1"
         offset="1" />
    </linearGradient>
    <linearGradient
       x1="18.379412"
       y1="44.980297"
       x2="18.379412"
       y2="3.0816143"
       id="linearGradient2458"
       xlink:href="#linearGradient2490-182-124"
       gradientUnits="userSpaceOnUse"
       gradientTransform="matrix(0.5160413,0,0,0.5160413,-0.384991,-0.3849911)" />
    <linearGradient
       id="linearGradient3242-187-536">
      <stop
         id="stop2778"
         style="stop-color:#8badea;stop-opacity:1"
         offset="0" />
      <stop
         id="stop2780"
         style="stop-color:#6396cd;stop-opacity:1"
         offset="0.26238" />
      <stop
         id="stop2782"
         style="stop-color:#3b7caf;stop-opacity:1"
         offset="0.66093999" />
      <stop
         id="stop2784"
         style="stop-color:#194c70;stop-opacity:1"
         offset="1" />
    </linearGradient>
    <radialGradient
       cx="23.895569"
       cy="3.9900031"
       r="20.397499"
       fx="23.895569"
       fy="3.9900031"
       id="radialGradient2456"
       xlink:href="#linearGradient3242-187-536"
       gradientUnits="userSpaceOnUse"
       gradientTransform="matrix(0,1.2316137,-1.6257082,0,18.486581,-28.720783)" />
    <linearGradient
       id="linearGradient4873">
      <stop
         id="stop4875"
         style="stop-color:white;stop-opacity:1"
         offset="0" />
      <stop
         id="stop4877"
         style="stop-color:white;stop-opacity:0"
         offset="1" />
    </linearGradient>
    <linearGradient
       x1="63.397362"
       y1="-12.489107"
       x2="63.397362"
       y2="5.4675598"
       id="linearGradient2453"
       xlink:href="#linearGradient4873"
       gradientUnits="userSpaceOnUse"
       gradientTransform="matrix(1.0862728,0,0,1.0862481,-55.56661,15.813638)" />
  </defs>
  <g
     id="layer1">
    <path
       d="m 24,21 c 0,1.656854 -5.372583,3 -12,3 C 5.3725828,24 -2.5e-7,22.656854 -2.5e-7,21 -2.5e-7,19.343146 5.3725828,18 12,18 c 6.627417,0 12,1.343146 12,3 l 0,0 z"
       id="path8836"
       style="opacity:0.3;fill:url(#radialGradient2461);fill-opacity:1;fill-rule:evenodd;stroke:none;stroke-width:0.99999988;marker:none;visibility:visible;display:inline;overflow:visible" />
    <path
       d="m 12.000002,1.501785 c -5.792553,0 -10.498217,4.7056616 -10.498217,10.498214 0,5.792554 4.705664,10.498219 10.498217,10.498216 5.79255,0 10.498219,-4.705662 10.498213,-10.498216 0,-5.7925524 -4.705663,-10.498214 -10.498213,-10.498214 z"
       id="path2555"
       style="fill:url(#radialGradient2456);fill-opacity:1;stroke:url(#linearGradient2458);stroke-width:1.00365424;stroke-linecap:round;stroke-linejoin:round;stroke-miterlimit:4;stroke-opacity:1;stroke-dasharray:none;stroke-dashoffset:0" />
    <path
       d="m 21.499999,11.999663 c 0,5.246874 -4.253609,9.500336 -9.499879,9.500336 -5.2467526,0 -9.5001201,-4.253509 -9.5001201,-9.500336 0,-5.2466312 4.2533675,-9.4996623 9.5001201,-9.4996623 5.24627,0 9.499879,4.2530311 9.499879,9.4996623 l 0,0 z"
       id="path2463"
       style="opacity:0.4;fill:none;stroke:url(#linearGradient2453);stroke-width:0.99999994;stroke-miterlimit:4;stroke-opacity:1;stroke-dasharray:none" />
    <path
       d="m 9,10.851312 c 0.133856,0.363882 0.284521,0.658836 0.605452,0.255527 0.397883,-0.236731 1.731043,-1.2743934 1.597644,-0.257979 -0.426877,1.880812 -0.946481,3.741845 -1.3437773,5.628452 -0.4154287,1.033002 0.5279303,1.967395 1.5128653,1.295629 1.046924,-0.431584 1.947798,-1.134561 2.868143,-1.779436 -0.125575,-0.307965 -0.209273,-0.750354 -0.556249,-0.347606 -0.455597,0.20679 -1.450673,1.181728 -1.635539,0.377622 0.382698,-2.03658 1.09175,-3.99777 1.544989,-6.018111 C 14.010625,9.0764616 13.329423,7.9027016 12.309742,8.6711396 11.088138,9.2031876 10.066557,10.07231 9,10.851312 z M 13.533765,4.001596 C 12.287368,3.935451 11.635709,5.9446775 12.820152,6.4944925 13.781082,6.8885796 14.827362,5.9030226 14.592611,4.9182248 14.519759,4.4054322 14.059369,3.9843465 13.533766,4.001596 l -10e-7,0 z"
       id="text3482"
       style="font-size:40px;font-style:normal;font-variant:normal;font-weight:bold;font-stretch:normal;text-align:start;line-height:100%;writing-mode:lr-tb;text-anchor:start;opacity:0.2;fill:black;fill-opacity:1;stroke:none;font-family:URW Palladio L;-inkscape-font-specification:URW Palladio L Bold" />
    <path
       d="m 9,11.851312 c 0.133856,0.363882 0.284521,0.658836 0.605452,0.255527 0.397883,-0.236731 1.731043,-1.274393 1.597644,-0.257979 -0.426877,1.880812 -0.946481,3.741845 -1.3437773,5.628452 -0.4154287,1.033002 0.5279303,1.967395 1.5128653,1.295629 1.046924,-0.431584 1.947798,-1.134561 2.868143,-1.779436 -0.125575,-0.307965 -0.209273,-0.750354 -0.556249,-0.347606 -0.455597,0.20679 -1.450673,1.181728 -1.635539,0.377622 0.382698,-2.03658 1.09175,-3.99777 1.544989,-6.018111 C 14.010625,10.076462 13.329423,8.9027016 12.309742,9.6711396 11.088138,10.203188 10.066557,11.07231 9,11.851312 z m 4.533765,-6.849716 c -1.246397,-0.066145 -1.898056,1.9430816 -0.713613,2.4928966 0.96093,0.394086 2.00721,-0.59147 1.772459,-1.5762678 C 14.519759,5.4054321 14.059369,4.9843465 13.533766,5.001596 l -10e-7,0 z"
       id="path3536"
       style="font-size:40px;font-style:normal;font-variant:normal;font-weight:bold;font-stretch:normal;text-align:start;line-height:100%;writing-mode:lr-tb;text-anchor:start;fill:white;fill-opacity:1;stroke:none;font-family:URW Palladio L;-inkscape-font-specification:URW Palladio L Bold" />
  </g>
</svg>

<?xml version="1.0" encoding="UTF-8" standalone="no"?>
<!-- Created with Inkscape (http://www.inkscape.org/) -->
<svg id="svg2463" xmlns="http://www.w3.org/2000/svg" height="24" width="24" version="1.0" xmlns:xlink="http://www.w3.org/1999/xlink">
 <defs id="defs2465">
  <radialGradient id="radialGradient2461" gradientUnits="userSpaceOnUse" cy="4.625" cx="62.625" gradientTransform="matrix(1.1294 0 0 .28235 -58.729 19.694)" r="10.625">
   <stop id="stop8840" offset="0"/>
   <stop id="stop8842" style="stop-opacity:0" offset="1"/>
  </radialGradient>
  <linearGradient id="linearGradient2458" y2="3.0816" gradientUnits="userSpaceOnUse" x2="18.379" gradientTransform="matrix(.51604 0 0 .51604 -.38499 -.38499)" y1="44.98" x1="18.379">
   <stop id="stop2788" style="stop-color:#1f4b6a" offset="0"/>
   <stop id="stop2790" style="stop-color:#4083c2" offset="1"/>
  </linearGradient>
  <radialGradient id="radialGradient2456" gradientUnits="userSpaceOnUse" cy="3.99" cx="23.896" gradientTransform="matrix(0 1.2316 -1.6257 0 18.487 -28.721)" r="20.397">
   <stop id="stop2778" style="stop-color:#8badea" offset="0"/>
   <stop id="stop2780" style="stop-color:#6396cd" offset=".26238"/>
   <stop id="stop2782" style="stop-color:#3b7caf" offset=".66094"/>
   <stop id="stop2784" style="stop-color:#194c70" offset="1"/>
  </radialGradient>
  <linearGradient id="linearGradient2453" y2="5.4676" gradientUnits="userSpaceOnUse" x2="63.397" gradientTransform="matrix(1.0863 0 0 1.0862 -55.567 15.814)" y1="-12.489" x1="63.397">
   <stop id="stop4875" style="stop-color:#fff" offset="0"/>
   <stop id="stop4877" style="stop-color:#fff;stop-opacity:0" offset="1"/>
  </linearGradient>
 </defs>
 <g id="layer1">
  <path id="path8836" style="opacity:.3;fill-rule:evenodd;fill:url(#radialGradient2461)" d="m24 21c0 1.657-5.373 3-12 3-6.6274 0-12-1.343-12-3-2.5e-7 -1.657 5.3726-3 12-3 6.627 0 12 1.343 12 3z"/>
  <path id="path2555" style="stroke-linejoin:round;stroke:url(#linearGradient2458);stroke-linecap:round;stroke-width:1.0037;fill:url(#radialGradient2456)" d="m12 1.5018c-5.7926 0-10.498 4.7056-10.498 10.498-0.0002 5.793 4.7054 10.498 10.498 10.498 5.793 0 10.498-4.705 10.498-10.498 0-5.7926-4.705-10.498-10.498-10.498z"/>
  <path id="path2463" style="opacity:.4;stroke:url(#linearGradient2453);fill:none" d="m21.5 12c0 5.247-4.254 9.5-9.5 9.5-5.2466 0-9.5-4.254-9.5-9.5 0-5.247 4.2534-9.5 9.5-9.5 5.246 0 9.5 4.253 9.5 9.5z"/>
  <path id="text3482" style="opacity:.2" d="m9 10.851c0.1339 0.364 0.2845 0.659 0.6055 0.256 0.3975-0.237 1.7305-1.2746 1.5975-0.258-0.427 1.881-0.946 3.742-1.3437 5.628-0.4154 1.033 0.5277 1.968 1.5127 1.296 1.047-0.432 1.948-1.135 2.868-1.779-0.125-0.308-0.209-0.751-0.556-0.348-0.456 0.207-1.451 1.182-1.635 0.378 0.382-2.037 1.091-3.998 1.545-6.019 0.417-0.9285-0.265-2.1023-1.284-1.3339-1.222 0.5321-2.243 1.4009-3.31 2.1799zm4.534-6.8494c-1.247-0.0661-1.898 1.9431-0.714 2.4929 0.961 0.3941 2.007-0.5915 1.773-1.5763-0.073-0.5128-0.534-0.9339-1.059-0.9166z"/>
  <path id="path3536" style="fill:#fff" d="m9 11.851c0.1339 0.364 0.2845 0.659 0.6055 0.256 0.3975-0.237 1.7305-1.275 1.5975-0.258-0.427 1.881-0.946 3.742-1.3437 5.628-0.4154 1.033 0.5277 1.968 1.5127 1.296 1.047-0.432 1.948-1.135 2.868-1.779-0.125-0.308-0.209-0.751-0.556-0.348-0.456 0.207-1.451 1.182-1.635 0.378 0.382-2.037 1.091-3.998 1.545-6.019 0.417-0.929-0.265-2.1023-1.284-1.3339-1.222 0.5319-2.243 1.4009-3.31 2.1799zm4.534-6.8494c-1.247-0.0661-1.898 1.9431-0.714 2.4929 0.961 0.3941 2.007-0.5915 1.773-1.5763-0.073-0.5128-0.534-0.9339-1.059-0.9166z"/>
 </g>
</svg>
